svgs/sharp-regular/mars-and-venus.svg

<svg xmlns="http://www.w3.org/2000/svg" viewBox="0 0 512 512"><!--! Font Awesome Pro 6.6.0 by @fontawesome - https://fontawesome.com License - https://fontawesome.com/license (Commercial License) Copyright 2024 Fonticons, Inc. --><path d="M376 0L352 0l0 48 24 0 38.1 0L371.2 90.9C340.3 64.2 300 48 256 48C158.8 48 80 126.8 80 224c0 89.1 66.2 162.7 152 174.4l0 17.6-24 0-24 0 0 48 24 0 24 0 0 24 0 24 48 0 0-24 0-24 24 0 24 0 0-48-24 0-24 0 0-17.6c85.8-11.7 152-85.3 152-174.4c0-35.8-10.7-69.2-29.1-97L448 81.9l0 38.1 0 24 48 0 0-24 0-96 0-24L472 0 376 0zM256 96a128 128 0 1 1 0 256 128 128 0 1 1 0-256z"/></svg>

<svg xmlns="http://www.w3.org/2000/svg" viewBox="0 0 512 512"><!--! Font Awesome Pro 6.5.2 by @fontawesome - https://fontawesome.com License - https://fontawesome.com/license (Commercial License) Copyright 2024 Fonticons, Inc. --><path d="M376 0H352V48h24 38.1L371.2 90.9C340.3 64.2 300 48 256 48C158.8 48 80 126.8 80 224c0 89.1 66.2 162.7 152 174.4V416H208 184v48h24 24v24 24h48V488 464h24 24V416H304 280V398.4c85.8-11.7 152-85.3 152-174.4c0-35.8-10.7-69.2-29.1-97L448 81.9V120v24h48V120 24 0H472 376zM256 96a128 128 0 1 1 0 256 128 128 0 1 1 0-256z"/></svg>
